X:1
T:Title
%%score { ( 1 4 ) | ( 2 3 ) }
L:1/8
Q:1/4=106
M:4/4
K:C
V:1 treble nm="Grand Piano"
V:4 treble 
V:2 bass 
V:3 bass 
V:1
 CCE[EG] [Ec]4 | [CAc][CAc][CGB][CFA] [EG]4 | [EG][EG][FA][EG] E2 C2 | D6 z2 | CCE[EG] [Ec]4 | %5
w: H.~S.~Miller * * * *|||||
 [CAc][CAc][CGB][CFA] [CEG]4 | [CEG][CEG][CFA][G,CG] [CE]2[K:bass] [F,B,D]2 | [E,C]6 z2 | %8
w: |||
 [G,CE]2 [CEG]2 [Ec]3 [Ec] | z4 [Ec]4 | [CAc][CAc][CGB][CFA] [CEG]4 | %11
w: |||
 [FA][EG][G,EG][G,DF] [G,CE]4 | [G,CE]2 [CEG]2 [Ec]3 [Ec] | z4 [Ec]4 | %14
w: |||
 [CAc][CAc][CGB][CFA] [CEG]2 [DFB]2 | [CEc]6 z2 |] %16
w: ||
V:2
 [C,E,G,][C,E,G,][C,G,C][C,G,] G,2 C2 | F,F,F,F, [C,C]4 | [C,C][C,C][C,C][C,C] [C,G,C]2 [E,G,]2 | %3
 [G,B,]6 z2 | [C,E,G,][C,E,G,][C,G,C][C,G,] G,2 C2 | F,F,F,F, C,4 | C,C,C,E, G,2 G,,2 | C,6 z2 | %8
 C,2 C,2 [C,G,]3 [C,G,] | G,2[K:treble] G,2[K:bass] z4 | F,F,F,F, C,4 | G,G,G,,G,, C,4 | %12
 C,2 C,2 [C,G,]3 [C,G,] | G,2 z2 z4 | F,F,F,F, G,2 G,2 | C,6 z2 |] %16
V:3
 z4 C,4 | x8 | x8 | x8 | z4 C,4 | x8 | x8 | x8 | x8 | z[K:treble] D z F[K:bass] [C,G,]C, C,2 | x8 | %11
 x8 | x8 | z D [G,,G,]2 [C,G,]C, C,2 | x8 | x8 |] %16
V:4
 x8 | x8 | x8 | x8 | x8 | x8 | x6[K:bass] x2 | x8 | x8 | [DB]B[Fd]d z G, C2 | x8 | x8 | x8 | %13
 [DB]B[Fd][Fd] z G, C2 | x8 | x8 |] %16

